X:1
T:Sospiro
T:Sospiro
T:Bartolomeo Spighi da Prato
C:Bartolomeo Spighi da Prato
%%score [ 1 2 ] { ( 3 5 6 ) | 4 }
L:1/8
Q:1/4=120
M:3/2
K:C
V:1 treble-8 nm="Tenor 1" snm="T 1"
V:2 treble-8 nm="Tenor 2" snm="T 2"
V:3 treble nm="MusicXML Part"
V:5 treble 
V:6 treble 
V:4 bass 
V:1
"^Source: Musical Concerto d'arie e canzonette---Fiorenza---Z.Pignoni---1641.\nEditor: André Vierendeels (11/12/08)\nContinuo: André Vierendeels" z4 d2 d4 ^c2 | %1
w: So- spi- ro|
w: Lan- guis- co|
w: |
w: Che- parlo ohi|
w: |
 d4 z2 z6"^Canzonetta" | z6 E2 E2 F2 | G3 F E2 FE D2 D2 | E6 e2 e2 d2 | %5
w: si|ma nul- la|gio- va- mi il _ so- spi-|rar, ma nul- la|
w: si|ma nul- la|gio- va- mi al _ mio lan-|guir- ma nul- la|
w: ||||
w: me|a- hi che|van- neg- gio nel _ mio do-|lor a- lui che|
w: ||||
 d3 d d2"^-natural" f2 e2 e2 | d6 z6 | z12 | e2 e2 e2 f3 e e2 | e4 ^d2 e4 z2 | z4 d2 e4 d2 | %11
w: gio- va- mi il so- spi-|rar||quel- la- cru- de- le che|mi fe- ri|non da ris-|
w: gio- va- mi al mio lan-|guir||che la bel- ta che mi|ra- * pi||
w: |||||non por- ge|
w: van- neg- gio nel mio do-|lor|||||
w: |||vo- glio mo- rir Li- dia|per- * te|fe- ris- c'il|
 c2 c2 c2 B2 GABc | A4 c2 c2 Bcde | c2 G4 A6- | A2 EF GA D6 ::[M:6/8] dAB c>cc | _BBB AAB | %17
w: tor- no al mio pe- * * *|nar, al mio pe- * * *|nar, al mio|_ pe- * * * nar.|Sof- frir' il co- re non|puo tal' ar- do- re e|
w: ||||||
w: pa- c'a mie- i mar- * * *|tir, mie- i mar- * * *|tir, mie- i|_ mar- * * * tir.|||
w: ||||||
w: se- no, fe- ris- c'il _ _ _|cor fe- ris- 'il _ _ _|cor, fe- ris-|* c'il- * * * cor.|||
 c2 c d3- | d2 A G3 | F3- FFE | DGF E2 e | c2 d2 dc | B3 c3- | ced cfe | dgf edd | e3- e3 | %26
w: pur sa- ro|_ co- stan-|te _ non piu|no non piu no non|vo- gli'es- ser a-|man- te|_ non piu no non piu|no non vo- gli'es- ser a-|man- *|
w: |||||||||
w: |||||||||
w: |||||||||
w: |||||||||
 d3- d3 :| %27
w: te. _|
w: |
w: |
w: |
w: |
V:2
 z12 | A2 A2 G2 c3 B A2 | BA A2 ^G2 A4 z2 | z4 c2 c4 B2 | c6 c2 c2 A2 | B3 A B2 d2 d2 ^c2 | %6
w: |Ma nul- la gio- va- mi|il _ so- spi- rar|so- spi- ro|si ma nul- *|giio- va- mi- il so- spi-|
w: |Ma nul- la gio va- mi|al- _ mio lan- guir|lan- guis- co|si ma- nul- la|gio- va- mi al mio lan-|
w: |A- hi che van- neg- gio|nel _ mio do- lor|che parlo ohi|me a- hi che|van- neg- gio nel mio do-|
 d6 A2 A2 A2 | _B3 A A2 A4 ^G2 | A4 B2 c4 B2 | A2 A2 A2 G2 E"^#"FGA | ^F4 z2 z4 G2 | %11
w: rar quel- la cru-|del- le che mi fe-|ri non da ris-|tor- no al mio- _ pe- * *|nar al|
w: guir, che la bel-|ta che mi ra- *|pi non por- ge|pa- cea mie- i mar- * * *|tir mie-|
w: lor vo- glio mo-|rir Li- dia per- *|te fe- ris- c'il|se- no, fe ris- c'il _ _ _|cor, fe-|
 G2"^#" FG AB G4 z2 | z4 G2 F4 F2 | E2 e2 d2 cd ef d2 | d2 d3 ^c d6 ::[M:6/8] z6 | GDE F>FF | %17
w: mio pe- * * * nar,|al mio pe-|nar, al mio pe- * * * nar,|al mio pe- nar.||Sof- frir' il co- re non|
w: i mar- * * * tir,|mie- i mar-|tir, mie- i mar- * * * tir,|mie- i mar- tir.-|||
w: ris- c'il- * * * cor,|fe- ris- c'il|cor, fe- ris- c'il _ _ _ cor,|fe- ris- c'il cor.-|||
 EEE D>DF | G>GF F FE | F3- F3 | z BA GcB | A2 B3 A | A2 ^G A3- | AcB Adc | Bed cdd | %25
w: puo tal' ar- do- re e|pur sa- ro co- stan- *|te _|non piu no non vo-|gli'es- er a-|man- te _|_ non piu no non piu|no non vo- cli'es- ser a-|
w: ||||||||
w: ||||||||
 d3- d2"^#" c | d3- d3 :| %27
w: man- * *||
w: ||
w: ||
V:3
 [DA]6 [EA]6 | [DFA]6 [EAc]6 | [FA]2 [EB]4 [EAc]4 [FA]2 | [CG]6 [FA]2 [DG]4 | [EG]6 [Gc]4 [FA]2 | %5
 [DB]6 [FA]2 [EA]4 | [FA]6 [FA]4 [EA]2 | [DG]4 [EA]2 [DF]4 ED | [^CA]4 [EB]2 [Ec]4 [EGB]2 | A6 B6 | %10
 [DA]6 [EG]4 [DG]2 | [Gc]2 [^Fc]4 [DB]6 | [FA]4 [Gc]2 [Fc]4 [FB]2 | [EG]4 [DG]2 [CA]6 | %14
 [EA]4 [^CEA]2 [D^FA]6 ::[M:6/8] [FA]3 [Ec]3 | [GB]3 [FA]3 | [Ec]3 [DG]3- | [DG]2 [FA] G3 | %19
 [FA]3- [FA]2 [EG] | [DB]3 [Gc]3 | [Ac]2 [FA]2 [Ec]2 | [EB]3 [E-Ac-]3 | [EAc]3 [FAc] [Ad]2 | %24
 [GB] [Gc]2 [Ac] [Gd]2 | E6 | x6 :| %27
V:4
 z4 D,2 A,6 | D,4 E,2 A,3 G, F,2 | D,2 E,4 A,,4 D,2 | E,3 D, C,2 F,,2 G,,4 | C,6 C,4 D,2 | %5
 G,3 ^F, G,2 D,2 A,4 | D,6 D,4"^6" ^C,2 |"^6  5" D,4 C,2"^7    6" _B,,6 | %8
 A,,2 A,2"^6" ^G,2 A,4 G,2 |"^7  6" F,6"^#" E,6 | D,6 C,4 B,,2 |"^7  6" A,,6 G,,6 | %12
 F,,2 F,2 E,2"^7  6" D,6 | C,4 B,,2 A,,2 G,,2 ^F,,2 | A,,6 D,6 ::[M:6/8] D,3 A,,3 | G,,3 D,3 | %17
 A,,3 _B,,3 | _B,,2 A,, C,3 | F,,3 F,,3 | G,,3 C,3 | F,2 D,2 A,,2 |"^4  3" E,3 A,,3 | %23
 A,,3"^Notes: Original keys:  Ut 4rth, Ut 4rth, Fa 4rth\n            Editorial aacidentals above the staff\n            Canzonetta printed in black notes" F, D,2 | %24
 G, E,2 A, _B,2 | G,3 A,3 | D,3- D,3 :| %27
V:5
 x12 | x12 | x12 | x12 | x12 | x12 | x12 | x12 | x12 | F4 ^D2 z2 z4 | x12 | x12 | x12 | x12 | %14
 x12 ::[M:6/8] x6 | x6 | x6 | x6 | x6 | x6 | x6 | x6 | x6 | x6 | d2 e d2 ^c | x6 :| %27
V:6
 x12 | x12 | x12 | x12 | x12 | x12 | x12 | x12 | x12 | x12 | x12 | x12 | x12 | x12 | x12 :: %15
[M:6/8] x6 | x6 | x6 | x6 | x6 | x6 | x6 | x6 | x6 | x6 | G2 G A2 G | [^FA]6 :| %27

